X: 57
T:Rochdale Coconut Dance
M:4/4
L:1/8
Q:1/8=160
K:G
EFGF E2 B2|EFGF E2 B2|c2 Ac B2 GB|1 ABAG F2 D2:|]2 A2 F2 G3 E||
G2 B2 G2 B2|AGFG ABcA|1 G2 B2 G2 B2|AGFE D4:|]2 BdBG AcAF|G2 B2 G2 F2||
